static/img/kroki/9cea8a451eb743fcfaa7109324f7552e.svg

<?xml version="1.0" encoding="us-ascii" standalone="no"?><svg xmlns="http://www.w3.org/2000/svg" xmlns:xlink="http://www.w3.org/1999/xlink" contentStyleType="text/css" height="374px" preserveAspectRatio="none" style="width:545px;height:374px;" version="1.1" viewBox="0 0 545 374" width="545px" zoomAndPan="magnify"><defs/><g><!--class azure_cosmos_db_postgresql_cluster_server_configuration--><g id="elem_azure_cosmos_db_postgresql_cluster_server_configuration"><rect codeLine="23" fill="#3D176E" height="39.7891" id="azure_cosmos_db_postgresql_cluster_server_configuration" rx="2.5" ry="2.5" style="stroke:#000D19;stroke-width:0.5;" width="527" x="7" y="328.58"/><ellipse cx="22" cy="348.4745" fill="#ADD1B2" rx="11" ry="11" style="stroke:#181818;stroke-width:1.0;"/><path d="M24.9688,354.1152 Q24.3906,354.412 23.75,354.5527 Q23.1094,354.7089 22.4063,354.7089 Q19.9063,354.7089 18.5781,353.0683 Q17.2656,351.412 17.2656,348.287 Q17.2656,345.162 18.5781,343.5058 Q19.9063,341.8495 22.4063,341.8495 Q23.1094,341.8495 23.75,342.0058 Q24.4063,342.162 24.9688,342.4589 L24.9688,345.1777 Q24.3438,344.5995 23.75,344.3339 Q23.1563,344.0527 22.5313,344.0527 Q21.1875,344.0527 20.5,345.1308 Q19.8125,346.1933 19.8125,348.287 Q19.8125,350.3808 20.5,351.4589 Q21.1875,352.5214 22.5313,352.5214 Q23.1563,352.5214 23.75,352.2558 Q24.3438,351.9745 24.9688,351.3964 L24.9688,354.1152 Z " fill="#000000"/><text fill="#D9B8FF" font-family="Helvetica" font-size="17" lengthAdjust="spacing" textLength="485" x="41" y="354.3598">azure_cosmos_db_postgresql_cluster_server_configuration</text></g><!--class azure_proxy_resource--><g id="elem_azure_proxy_resource"><rect codeLine="26" fill="#3D176E" height="39.7891" id="azure_proxy_resource" rx="2.5" ry="2.5" style="stroke:#000D19;stroke-width:0.5;" width="224" x="79.5" y="167.79"/><ellipse cx="94.5" cy="187.6845" fill="#ADD1B2" rx="11" ry="11" style="stroke:#181818;stroke-width:1.0;"/><path d="M97.4688,193.3252 Q96.8906,193.622 96.25,193.7627 Q95.6094,193.9189 94.9063,193.9189 Q92.4063,193.9189 91.0781,192.2783 Q89.7656,190.622 89.7656,187.497 Q89.7656,184.372 91.0781,182.7158 Q92.4063,181.0595 94.9063,181.0595 Q95.6094,181.0595 96.25,181.2158 Q96.9063,181.372 97.4688,181.6689 L97.4688,184.3877 Q96.8438,183.8095 96.25,183.5439 Q95.6563,183.2627 95.0313,183.2627 Q93.6875,183.2627 93,184.3408 Q92.3125,185.4033 92.3125,187.497 Q92.3125,189.5908 93,190.6689 Q93.6875,191.7314 95.0313,191.7314 Q95.6563,191.7314 96.25,191.4658 Q96.8438,191.1845 97.4688,190.6064 L97.4688,193.3252 Z " fill="#000000"/><text fill="#D9B8FF" font-family="Helvetica" font-size="17" lengthAdjust="spacing" textLength="182" x="113.5" y="193.5698">azure_proxy_resource</text></g><!--class microsoft_resource--><g id="elem_microsoft_resource"><rect codeLine="29" fill="#3D176E" height="39.7891" id="microsoft_resource" rx="2.5" ry="2.5" style="stroke:#000D19;stroke-width:0.5;" width="200" x="338.5" y="167.79"/><ellipse cx="353.5" cy="187.6845" fill="#ADD1B2" rx="11" ry="11" style="stroke:#181818;stroke-width:1.0;"/><path d="M356.4688,193.3252 Q355.8906,193.622 355.25,193.7627 Q354.6094,193.9189 353.9063,193.9189 Q351.4063,193.9189 350.0781,192.2783 Q348.7656,190.622 348.7656,187.497 Q348.7656,184.372 350.0781,182.7158 Q351.4063,181.0595 353.9063,181.0595 Q354.6094,181.0595 355.25,181.2158 Q355.9063,181.372 356.4688,181.6689 L356.4688,184.3877 Q355.8438,183.8095 355.25,183.5439 Q354.6563,183.2627 354.0313,183.2627 Q352.6875,183.2627 352,184.3408 Q351.3125,185.4033 351.3125,187.497 Q351.3125,189.5908 352,190.6689 Q352.6875,191.7314 354.0313,191.7314 Q354.6563,191.7314 355.25,191.4658 Q355.8438,191.1845 356.4688,190.6064 L356.4688,193.3252 Z " fill="#000000"/><text fill="#D9B8FF" font-family="Helvetica" font-size="17" lengthAdjust="spacing" textLength="158" x="372.5" y="193.5698">microsoft_resource</text></g><!--class resource--><g id="elem_resource"><rect codeLine="32" fill="#3D176E" height="39.7891" id="resource" rx="2.5" ry="2.5" style="stroke:#000D19;stroke-width:0.5;" width="113" x="382" y="7"/><ellipse cx="397" cy="26.8945" fill="#ADD1B2" rx="11" ry="11" style="stroke:#181818;stroke-width:1.0;"/><path d="M399.9688,32.5352 Q399.3906,32.832 398.75,32.9727 Q398.1094,33.1289 397.4063,33.1289 Q394.9063,33.1289 393.5781,31.4883 Q392.2656,29.832 392.2656,26.707 Q392.2656,23.582 393.5781,21.9258 Q394.9063,20.2695 397.4063,20.2695 Q398.1094,20.2695 398.75,20.4258 Q399.4063,20.582 399.9688,20.8789 L399.9688,23.5977 Q399.3438,23.0195 398.75,22.7539 Q398.1563,22.4727 397.5313,22.4727 Q396.1875,22.4727 395.5,23.5508 Q394.8125,24.6133 394.8125,26.707 Q394.8125,28.8008 395.5,29.8789 Q396.1875,30.9414 397.5313,30.9414 Q398.1563,30.9414 398.75,30.6758 Q399.3438,30.3945 399.9688,29.8164 L399.9688,32.5352 Z " fill="#000000"/><text fill="#D9B8FF" font-family="Helvetica" font-size="17" lengthAdjust="spacing" textLength="71" x="416" y="32.7798">resource</text></g><!--reverse link azure_proxy_resource to azure_cosmos_db_postgresql_cluster_server_configuration--><g id="link_azure_proxy_resource_azure_cosmos_db_postgresql_cluster_server_configuration"><path codeLine="35" d="M209.046,223.9566 C224.226,254.4766 245.73,297.69 260.94,328.25 " fill="none" id="azure_proxy_resource-backto-azure_cosmos_db_postgresql_cluster_server_configuration" style="stroke:#FFAF37;stroke-width:2.0;"/><polygon fill="none" points="201.03,207.84,203.6738,226.6286,214.4182,221.2845,201.03,207.84" style="stroke:#FFAF37;stroke-width:2.0;"/></g><!--reverse link microsoft_resource to azure_cosmos_db_postgresql_cluster_server_configuration--><g id="link_microsoft_resource_azure_cosmos_db_postgresql_cluster_server_configuration"><path codeLine="36" d="M405.1567,220.2023 C372.8567,250.7223 323.17,297.69 290.84,328.25 " fill="none" id="microsoft_resource-backto-azure_cosmos_db_postgresql_cluster_server_configuration" style="stroke:#FFAF37;stroke-width:2.0;"/><polygon fill="none" points="418.24,207.84,401.0359,215.8412,409.2775,224.5634,418.24,207.84" style="stroke:#FFAF37;stroke-width:2.0;"/></g><!--reverse link resource to microsoft_resource--><g id="link_resource_microsoft_resource"><path codeLine="37" d="M438.5,65.05 C438.5,95.57 438.5,136.9 438.5,167.46 " fill="none" id="resource-backto-microsoft_resource" style="stroke:#FFAF37;stroke-width:2.0;"/><polygon fill="none" points="438.5,47.05,432.5,65.05,444.5,65.05,438.5,47.05" style="stroke:#FFAF37;stroke-width:2.0;"/></g><!--SRC=[fP11Jy9048Nl_HMRS2O1YGA95o0nUY56l3VRtTcoeTsfCriGrFyk5JLBMo3HqoRpldtlpIoj1W5vuRSYXpm1ueXNrXMIP2ucHBYPOOOaEiP8CnZMnJjq_Y8mbpc8UyZMuAsITU9vQTNA0REu2gIfLAkKi7JwOEz9EjvBu7n0pJB9FF6UR59w2CheSJ8ofaxMJJi3tH_UG0D3qa3VIA_Nq_rn7RaOTNRlNs9XTo3wuT7cwA5Hin7nHPrjMH51oSQYF_h9ZezIQ-jISHtCdWwTo04TpHTBgN5JqKPc7CQm1mBqsm9cZQrWFD9cs0e_d88ZLPrEo5r942la73dMILmW-vI0Nx9OPMNb4pFGUlyeTCQc9KblqOctAFeuiYW8NxVn_YUMf23KSwi86OrlLOzdhLwtxzrkzwzDevRu_ndMR9h-qIS0]--></g></svg>

<svg xmlns="http://www.w3.org/2000/svg" width="545" height="374" viewBox="0 0 545 374"><rect width="527" height="39.789" x="7" y="328.58" fill="#3D176E" rx="2.5" ry="2.5" style="stroke:#000d19;stroke-width:.5"/><circle cx="22" cy="348.474" r="11" fill="#ADD1B2" style="stroke:#181818;stroke-width:1"/><path d="M24.969 354.115q-.578.297-1.219.438-.64.156-1.344.156-2.5 0-3.828-1.64-1.312-1.657-1.312-4.782t1.312-4.781q1.328-1.656 3.828-1.656.703 0 1.344.156.656.156 1.219.453v2.719q-.625-.579-1.219-.844-.594-.281-1.219-.281-1.343 0-2.031 1.078-.687 1.062-.687 3.156t.687 3.172q.688 1.062 2.031 1.062.625 0 1.219-.265.594-.281 1.219-.86z"/><text x="41" y="354.36" fill="#D9B8FF" font-family="Helvetica" font-size="17" textLength="485">azure_cosmos_db_postgresql_cluster_server_configuration</text><rect width="224" height="39.789" x="79.5" y="167.79" fill="#3D176E" rx="2.5" ry="2.5" style="stroke:#000d19;stroke-width:.5"/><circle cx="94.5" cy="187.685" r="11" fill="#ADD1B2" style="stroke:#181818;stroke-width:1"/><path d="M97.469 193.325q-.578.297-1.219.438-.64.156-1.344.156-2.5 0-3.828-1.64-1.312-1.657-1.312-4.782t1.312-4.781q1.328-1.656 3.828-1.656.703 0 1.344.156.656.156 1.219.453v2.719q-.625-.578-1.219-.844-.594-.281-1.219-.281-1.344 0-2.031 1.078-.687 1.062-.687 3.156t.687 3.172q.688 1.062 2.031 1.062.625 0 1.219-.265.594-.281 1.219-.86z"/><text x="113.5" y="193.57" fill="#D9B8FF" font-family="Helvetica" font-size="17" textLength="182">azure_proxy_resource</text><rect width="200" height="39.789" x="338.5" y="167.79" fill="#3D176E" rx="2.5" ry="2.5" style="stroke:#000d19;stroke-width:.5"/><circle cx="353.5" cy="187.685" r="11" fill="#ADD1B2" style="stroke:#181818;stroke-width:1"/><path d="M356.469 193.325q-.578.297-1.219.438-.64.156-1.344.156-2.5 0-3.828-1.64-1.312-1.657-1.312-4.782t1.312-4.781q1.328-1.656 3.828-1.656.703 0 1.344.156.656.156 1.219.453v2.719q-.625-.578-1.219-.844-.594-.281-1.219-.281-1.344 0-2.031 1.078-.687 1.062-.687 3.156t.687 3.172q.688 1.062 2.031 1.062.625 0 1.219-.265.594-.281 1.219-.86z"/><text x="372.5" y="193.57" fill="#D9B8FF" font-family="Helvetica" font-size="17" textLength="158">microsoft_resource</text><rect width="113" height="39.789" x="382" y="7" fill="#3D176E" rx="2.5" ry="2.5" style="stroke:#000d19;stroke-width:.5"/><circle cx="397" cy="26.895" r="11" fill="#ADD1B2" style="stroke:#181818;stroke-width:1"/><path d="M399.969 32.535q-.578.297-1.219.438-.64.156-1.344.156-2.5 0-3.828-1.64-1.312-1.657-1.312-4.782t1.312-4.781q1.328-1.656 3.828-1.656.703 0 1.344.156.656.156 1.219.453v2.719q-.625-.578-1.219-.844-.594-.281-1.219-.281-1.344 0-2.031 1.078-.687 1.062-.687 3.156t.687 3.172q.688 1.062 2.031 1.062.625 0 1.219-.265.594-.281 1.219-.86z"/><text x="416" y="32.78" fill="#D9B8FF" font-family="Helvetica" font-size="17" textLength="71">resource</text><g fill="none"><path d="M209.046 223.957c15.18 30.52 36.684 73.733 51.894 104.293" style="stroke:#ffaf37;stroke-width:2"/><path d="m201.03 207.84 2.644 18.789 10.744-5.344z" style="stroke:#ffaf37;stroke-width:2"/></g><g fill="none"><path d="M405.157 220.202c-32.3 30.52-81.987 77.488-114.317 108.048" style="stroke:#ffaf37;stroke-width:2"/><path d="m418.24 207.84-17.204 8.001 8.241 8.722z" style="stroke:#ffaf37;stroke-width:2"/></g><path fill="none" d="M438.5 65.05v102.41m0-120.41-6 18h12z" style="stroke:#ffaf37;stroke-width:2"/></svg>
